images/close.svg

<?xml version="1.0" encoding="UTF-8" standalone="no"?>
<!-- Created with Inkscape (http://www.inkscape.org/) -->

<svg
   xmlns:dc="http://purl.org/dc/elements/1.1/"
   xmlns:cc="http://creativecommons.org/ns#"
   xmlns:rdf="http://www.w3.org/1999/02/22-rdf-syntax-ns#"
   xmlns:svg="http://www.w3.org/2000/svg"
   xmlns="http://www.w3.org/2000/svg"
   version="1.1"
   width="15"
   height="15"
   viewBox="0 0 15 15"
   id="Layer_1"
   xml:space="preserve"><metadata
   id="metadata9"><rdf:RDF><cc:Work
       rdf:about=""><dc:format>image/svg+xml</dc:format><dc:type
         rdf:resource="http://purl.org/dc/dcmitype/StillImage" /><dc:title></dc:title></cc:Work></rdf:RDF></metadata><defs
   id="defs7" />
<path
   d="m 2.1965056,12.803092 c -2.92867413,-2.9287895 -2.92867413,-7.6776395 0,-10.6064995 2.9296117,-2.92879 7.6773625,-2.92879 10.6069444,0 2.928733,2.92883 2.928733,7.67771 0,10.6064995 -2.9295819,2.92921 -7.6773327,2.92921 -10.6069444,0 z M 11.477798,3.5223025 c -2.1971937,-2.19679 -5.758417,-2.19679 -7.9547322,0 -2.197194,2.19682 -2.197194,5.75827 0,7.9550895 2.1963152,2.19681 5.7575385,2.19681 7.9547322,0 2.196374,-2.1968795 2.196374,-5.7582695 0,-7.9550895 z M 5.5115293,10.814552 4.1858772,9.4884025 l 1.9884634,-1.98857 -1.9884634,-1.98855 1.3256521,-1.3262 1.9884634,1.98904 1.988522,-1.98904 1.3256223,1.3262 -1.988463,1.98855 1.988463,1.98857 L 9.4885147,10.814552 7.4999927,8.8255425 5.5115293,10.814552 z"
   id="path3"
   style="fill:#ffffff" />
</svg>

<svg xmlns="http://www.w3.org/2000/svg" width="15" height="15" viewBox="0 0 15 15"><path d="M2.197 12.803c-2.93-2.93-2.93-7.678 0-10.606 2.93-2.93 7.677-2.93 10.606 0 2.93 2.928 2.93 7.677 0 10.606-2.93 2.93-7.677 2.93-10.606 0zm9.28-9.28c-2.196-2.197-5.758-2.197-7.954 0-2.197 2.196-2.197 5.758 0 7.954 2.196 2.197 5.758 2.197 7.955 0 2.196-2.196 2.196-5.758 0-7.955zm-5.965 7.292L4.186 9.488 6.174 7.5 4.186 5.51l1.326-1.325L7.5 6.175l1.99-1.99 1.324 1.326L8.826 7.5l1.988 1.988-1.325 1.327-1.99-1.99-1.988 1.99z" fill="#fff"/></svg>
